Suru++-Ubuntu/animations/24/brasero-disc-55.svg

<!-- Created with Inkscape (http://www.inkscape.org/) -->
<svg width="24" height="24" version="1.0" xmlns="http://www.w3.org/2000/svg" xmlns:xlink="http://www.w3.org/1999/xlink">
 <path d="m12 1c-6.0719999 0-11 4.9280001-11 11 0 4.900294 3.2181727 9.020228 7.648438 10.441406l2.191406-6.53125c-1.698801-0.510313-2.964844-2.045862-2.964844-3.910156 1e-7 -2.277 1.848-4.125 4.125-4.125zm-2.878906 21.613281c0.352558 0.09531 0.708603 0.197643 1.074218 0.257813-0.367153-0.0597-0.719683-0.161817-1.074218-0.257813zm1.246093 0.257813c0.532988 0.07945 1.077822 0.128906 1.632813 0.128906-0.556516 0-1.10021-0.05077-1.632813-0.128906z" style="fill-rule:evenodd;fill:#fffafa;opacity:.5"/>
 <path d="m12 1v6.875c2.277 0 4.125 1.848 4.125 4.125s-1.848 4.125-4.125 4.125c-0.406677 0-0.789729-0.104376-1.160156-0.214844l-2.191406 6.574219c1.059224 0.339637 2.180294 0.515625 3.351562 0.515625 6.072 0 11-4.928 11-11 0-6.0719999-4.928-11-11-11z" style="fill:#ffffff"/>
</svg>

<?xml version="1.0" encoding="UTF-8" standalone="no"?>
<!-- Created with Inkscape (http://www.inkscape.org/) -->

<svg
   xmlns:dc="http://purl.org/dc/elements/1.1/"
   xmlns:cc="http://creativecommons.org/ns#"
   xmlns:rdf="http://www.w3.org/1999/02/22-rdf-syntax-ns#"
   xmlns:svg="http://www.w3.org/2000/svg"
   xmlns="http://www.w3.org/2000/svg"
   xmlns:xlink="http://www.w3.org/1999/xlink"
   xmlns:sodipodi="http://sodipodi.sourceforge.net/DTD/sodipodi-0.dtd"
   xmlns:inkscape="http://www.inkscape.org/namespaces/inkscape"
   version="1.0"
   width="24"
   height="24"
   id="svg2"
   sodipodi:docname="brasero-disc-55.svg"
   inkscape:version="0.92.2 (unknown)">
  <metadata
     id="metadata14">
    <rdf:RDF>
      <cc:Work
         rdf:about="">
        <dc:format>image/svg+xml</dc:format>
        <dc:type
           rdf:resource="http://purl.org/dc/dcmitype/StillImage" />
        <dc:title></dc:title>
      </cc:Work>
    </rdf:RDF>
  </metadata>
  <sodipodi:namedview
     pagecolor="#ffffff"
     bordercolor="#666666"
     borderopacity="1"
     objecttolerance="10"
     gridtolerance="10"
     guidetolerance="10"
     inkscape:pageopacity="0"
     inkscape:pageshadow="2"
     inkscape:window-width="1526"
     inkscape:window-height="851"
     id="namedview12"
     showgrid="false"
     inkscape:zoom="10.727273"
     inkscape:cx="-5.6398302"
     inkscape:cy="11"
     inkscape:window-x="0"
     inkscape:window-y="34"
     inkscape:window-maximized="0"
     inkscape:current-layer="svg2" />
  <defs
     id="defs4">
    <linearGradient
       id="linearGradient3587-6-5">
      <stop
         id="stop3589-9-2"
         style="stop-color:#e6e6e6;stop-opacity:1"
         offset="0" />
      <stop
         id="stop3591-7-4"
         style="stop-color:#ffffff;stop-opacity:1"
         offset="1" />
    </linearGradient>
    <linearGradient
       x1="15.669166"
       y1="-2.6219723"
       x2="15.669166"
       y2="11.969362"
       id="linearGradient2468"
       xlink:href="#linearGradient3587-6-5"
       gradientUnits="userSpaceOnUse"
       gradientTransform="matrix(0.9302326,0,0,1.2359551,-11.575969,5.1536003)" />
    <linearGradient
       x1="35.007519"
       y1="23.178743"
       x2="35.007519"
       y2="4.9945626"
       id="linearGradient2471"
       xlink:href="#linearGradient3587-6-5"
       gradientUnits="userSpaceOnUse"
       gradientTransform="translate(-25.785715,-3.035714)" />
  </defs>
  <path
     d="M 12,1 C 5.9280001,1 0.9999997,5.9280001 1,12 c 0,4.900294 3.2181727,9.020228 7.648438,10.441406 l 2.191406,-6.53125 C 9.141043,15.399843 7.875,13.864294 7.875,12 7.8750001,9.723 9.723,7.875 12,7.875 Z M 9.121094,22.613281 c 0.352558,0.09531 0.708603,0.197643 1.074218,0.257813 -0.367153,-0.0597 -0.719683,-0.161817 -1.074218,-0.257813 z m 1.246093,0.257813 C 10.900175,22.950544 11.445009,23 12,23 11.443484,23 10.89979,22.94923 10.367187,22.871094 Z"
     id="path3170"
     style="display:inline;overflow:visible;visibility:visible;opacity:0.5;fill:#fffafa;fill-opacity:1;fill-rule:evenodd;stroke:none;stroke-width:1.375;stroke-linecap:butt;stroke-linejoin:miter;stroke-miterlimit:4;stroke-dasharray:none;stroke-dashoffset:0;stroke-opacity:1;marker:none;marker-start:none;marker-mid:none;marker-end:none;enable-background:accumulate"
     inkscape:connector-curvature="0" />
  <path
     d="m 12,1 v 6.875 c 2.277,0 4.125,1.848 4.125,4.125 0,2.277 -1.848,4.125 -4.125,4.125 -0.406677,0 -0.789729,-0.104376 -1.160156,-0.214844 L 8.648438,22.484375 C 9.707662,22.824012 10.828732,23 12,23 18.072,23 23,18.072 23,12 23,5.9280001 18.072,1.0000003 12,1 Z"
     id="path3288"
     style="display:inline;overflow:visible;visibility:visible;opacity:1;fill:#ffffff;fill-opacity:1;fill-rule:nonzero;stroke:none;stroke-width:1.375;stroke-linecap:butt;stroke-linejoin:miter;stroke-miterlimit:4;stroke-dasharray:none;stroke-dashoffset:0;stroke-opacity:1;marker:none;marker-start:none;marker-mid:none;marker-end:none;enable-background:accumulate"
     inkscape:connector-curvature="0" />
</svg>
